build/assets/icon6CLR.svg

<svg width="142" height="115" viewBox="0 0 142 115" fill="none" xmlns="http://www.w3.org/2000/svg">
<path d="M48.5 102.875C68.5894 102.875 84.875 86.5894 84.875 66.5C84.875 46.4106 68.5894 30.125 48.5 30.125C28.4106 30.125 12.125 46.4106 12.125 66.5C12.125 86.5894 28.4106 102.875 48.5 102.875Z" stroke="#6C63FF" stroke-width="6.0625" stroke-miterlimit="10"/>
<path d="M18.791 87.4891L23.1009 84.8874C23.5627 84.6086 23.9289 84.1962 24.151 83.7047C24.3731 83.2131 24.4407 82.6658 24.3447 82.135L21.897 68.5936C21.7895 67.9989 21.8876 67.3854 22.1751 66.8538L26.2238 59.3674C26.3917 59.057 26.6196 58.7831 26.8942 58.5616L33.0917 53.5637C33.5027 53.2322 34.003 53.0304 34.529 52.9841C35.055 52.9377 35.5829 53.0488 36.0456 53.3033L38.7714 54.8025C39.3345 55.1122 39.7666 55.6152 39.9878 56.2186L40.5084 57.6383C40.6832 58.115 40.9906 58.5317 41.3944 58.8394C41.7983 59.147 42.2816 59.3328 42.7876 59.3748C43.2935 59.4167 43.8009 59.3132 44.2499 59.0762C44.6989 58.8393 45.0708 58.4789 45.3217 58.0376L47.1108 54.8906C47.2898 54.5758 47.5312 54.3008 47.8201 54.0825C48.109 53.8642 48.4394 53.7071 48.7912 53.6209C49.1429 53.5347 49.5085 53.5211 49.8657 53.5811C50.2228 53.641 50.5639 53.7732 50.8682 53.9696L56.3299 57.4939C56.7812 57.7851 57.3099 57.933 57.8467 57.9181C58.3835 57.9033 58.9033 57.7265 59.3378 57.4109C59.7722 57.0952 60.1011 56.6556 60.2811 56.1497C60.4611 55.6437 60.484 55.0952 60.3465 54.5761V54.5761C60.1878 53.9764 60.2435 53.3401 60.504 52.7771C60.7645 52.2141 61.2134 51.7597 61.7733 51.4925L69.3002 47.9001C69.8286 47.648 70.2591 47.2287 70.525 46.7071C70.791 46.1856 70.8776 45.5909 70.7715 45.0152L69.2202 36.6008" stroke="#6C63FF" stroke-width="6.0625" stroke-linecap="round" stroke-linejoin="round"/>
<path d="M72.5318 93.8016L67.0117 88.2706C66.7645 88.0229 66.4708 87.8263 66.1475 87.6922C65.8242 87.5581 65.4776 87.4891 65.1276 87.4891H60.7947C60.4124 87.4891 60.0345 87.4067 59.6869 87.2476C59.3392 87.0885 59.0299 86.8563 58.78 86.5669C58.5301 86.2776 58.3455 85.9377 58.2387 85.5706C58.132 85.2035 58.1055 84.8177 58.1612 84.4394L59.0633 78.3129C59.1246 77.8968 59.2836 77.5011 59.5273 77.1583C59.7711 76.8154 60.0926 76.5352 60.4655 76.3407L69.5073 71.6232C69.9864 71.3733 70.5302 71.275 71.0664 71.3415C71.6026 71.4081 72.1059 71.6362 72.5094 71.9957L82.0729 80.5158" stroke="#6C63FF" stroke-width="6.0625" stroke-linecap="round" stroke-linejoin="round"/>
<path d="M110.577 87.234C115.092 86.0242 117.772 81.3829 116.562 76.8675C115.352 72.3521 110.711 69.6725 106.195 70.8824C101.68 72.0923 99.0003 76.7335 100.21 81.2489C101.42 85.7643 106.061 88.4439 110.577 87.234Z" stroke="#A09AFF" stroke-width="2.60438" stroke-miterlimit="10"/>
<path d="M116.875 68.3469C117.915 67.7288 119.075 67.3406 120.277 67.2085C121.479 67.0765 122.696 67.2036 123.845 67.5813C124.994 67.959 126.049 68.5785 126.938 69.3982C127.828 70.2179 128.531 71.2186 129.001 72.3331C129.471 73.4475 129.697 74.6497 129.663 75.8588C129.63 77.0678 129.337 78.2556 128.806 79.3422C128.275 80.4287 127.516 81.3888 126.583 82.1577C125.649 82.9266 124.562 83.4865 123.393 83.7996" stroke="#A09AFF" stroke-width="2.60438" stroke-linecap="round" stroke-linejoin="round"/>
<path d="M100.829 96.1473C101.62 93.9889 102.918 92.0522 104.614 90.5009C106.31 88.9496 108.354 87.8292 110.574 87.2342C112.795 86.6392 115.125 86.5871 117.37 87.0824C119.615 87.5776 121.707 88.6057 123.471 90.0797" stroke="#A09AFF" stroke-width="2.60438" stroke-linecap="round" stroke-linejoin="round"/>
<path d="M123.395 83.7997C125.615 83.2031 127.946 83.1502 130.19 83.6456C132.435 84.1409 134.527 85.1699 136.29 86.6453" stroke="#A09AFF" stroke-width="2.60438" stroke-linecap="round" stroke-linejoin="round"/>
<path d="M90.2791 30.8008L81.4247 34.865L87.4754 11.1239C87.5756 10.7304 87.8282 10.3928 88.1774 10.1854C88.5265 9.97809 88.9438 9.91795 89.3373 10.0182L113.078 16.0689C113.472 16.1692 113.81 16.4217 114.017 16.7709C114.224 17.1201 114.284 17.5373 114.184 17.9309L110.024 34.2529C109.924 34.6464 109.671 34.984 109.322 35.1913C108.973 35.3987 108.556 35.4588 108.162 35.3585L90.2791 30.8008Z" stroke="#A09AFF" stroke-width="3.0625" stroke-linecap="round" stroke-linejoin="round"/>
<path d="M91.8392 31.1987L89.9483 38.6178C89.848 39.0114 89.9082 39.4286 90.1155 39.7778C90.3229 40.127 90.6605 40.3795 91.054 40.4798L108.937 45.0375L114.766 52.8439L120.817 29.1028C120.917 28.7093 120.857 28.292 120.65 27.9428C120.442 27.5936 120.105 27.3411 119.711 27.2408L112.292 25.35" stroke="#A09AFF" stroke-width="3.0625" stroke-linecap="round" stroke-linejoin="round"/>
</svg>

<svg width="142" height="115" fill="none" xmlns="http://www.w3.org/2000/svg"><path d="M48.5 102.875c20.09 0 36.375-16.286 36.375-36.375 0-20.09-16.286-36.375-36.375-36.375-20.09 0-36.375 16.286-36.375 36.375 0 20.09 16.286 36.375 36.375 36.375Z" stroke="#6C63FF" stroke-width="6.063" stroke-miterlimit="10"/><path d="m18.791 87.49 4.31-2.603a2.662 2.662 0 0 0 1.244-2.752l-2.448-13.541a2.662 2.662 0 0 1 .278-1.74l4.049-7.487c.168-.31.396-.584.67-.805l6.198-4.998a2.661 2.661 0 0 1 2.954-.26l2.725 1.498c.563.31.996.813 1.217 1.417l.52 1.42a2.662 2.662 0 0 0 4.814.399l1.789-3.147a2.662 2.662 0 0 1 3.757-.921l5.462 3.524a2.661 2.661 0 0 0 4.017-2.918v0a2.662 2.662 0 0 1 1.426-3.084L69.3 47.9a2.66 2.66 0 0 0 1.472-2.885l-1.552-8.414M72.532 93.802l-5.52-5.531a2.662 2.662 0 0 0-1.884-.782h-4.333a2.662 2.662 0 0 1-2.634-3.05l.902-6.126a2.662 2.662 0 0 1 1.402-1.972l9.042-4.718a2.663 2.663 0 0 1 3.002.373l9.564 8.52" stroke="#6C63FF" stroke-width="6.063" stroke-linecap="round" stroke-linejoin="round"/><path d="M110.577 87.234a8.464 8.464 0 1 0-4.382-16.352 8.464 8.464 0 0 0 4.382 16.352Z" stroke="#A09AFF" stroke-width="2.604" stroke-miterlimit="10"/><path d="M116.875 68.347a8.47 8.47 0 0 1 10.063 1.051 8.456 8.456 0 0 1 2.725 6.46 8.46 8.46 0 0 1-6.27 7.942M100.829 96.147a14.338 14.338 0 0 1 9.745-8.913 14.328 14.328 0 0 1 12.897 2.846" stroke="#A09AFF" stroke-width="2.604" stroke-linecap="round" stroke-linejoin="round"/><path d="M123.395 83.8a14.303 14.303 0 0 1 12.895 2.845" stroke="#A09AFF" stroke-width="2.604" stroke-linecap="round" stroke-linejoin="round"/><path d="m90.28 30.8-8.855 4.065 6.05-23.741a1.531 1.531 0 0 1 1.862-1.106l23.741 6.05a1.53 1.53 0 0 1 1.106 1.863l-4.16 16.322a1.53 1.53 0 0 1-1.862 1.105l-17.883-4.557Z" stroke="#A09AFF" stroke-width="3.063" stroke-linecap="round" stroke-linejoin="round"/><path d="m91.84 31.199-1.892 7.419a1.531 1.531 0 0 0 1.106 1.862l17.883 4.558 5.829 7.806 6.051-23.741a1.534 1.534 0 0 0-1.106-1.862l-7.419-1.891" stroke="#A09AFF" stroke-width="3.063" stroke-linecap="round" stroke-linejoin="round"/></svg>
